X:35
T:Major L. Stewart's Reel - of the Island of Java
R:reel
C:William Marshall
S:1822 Collection p41
B:Kerrs
Z:Paul Stewart Cranford (P.S.C.), <http://www.cranfordpub.com>
M:C|
L:1/8
Q:333
K:G
G2 g2 a/g/f g2|dgBg dgBg|G2 g2 a/g/f g2|1faAB cBcA:|2f/g/a AB cdef||
||gbeg dg B2|gbeg fgaf|gbeg dg B2|ABcd edef|
gbeg dg B2|gbeg fgaf|gbfa egdg|caBg ABcA|]

